src/assets/img/sustainers/quira.svg

<svg width="68" height="68" viewBox="0 0 68 68" fill="none" xmlns="http://www.w3.org/2000/svg">
<rect width="68" height="68" fill="#9FFF45"/>
<path fill-rule="evenodd" clip-rule="evenodd" d="M43.106 40.2712L37.3702 34.1401L28.1657 24.301C29.9381 22.9037 32.1284 22.0767 34.4998 22.0767C40.4021 22.0767 45.1867 27.1913 45.1867 33.5C45.1867 36.0347 44.4131 38.376 43.106 40.2712ZM34.4998 44.9231C28.5979 44.9231 23.8133 39.8092 23.8133 33.5C23.8133 30.9652 24.5869 28.6239 25.894 26.7291L40.8343 42.699C39.0619 44.0963 36.8716 44.9231 34.4998 44.9231ZM46.7786 44.1971L45.4996 42.8298C47.4044 40.2673 48.5449 37.027 48.5449 33.5C48.5449 25.2084 42.257 18.487 34.4998 18.487C31.2007 18.487 28.1689 19.7062 25.772 21.7424L22.2712 18L20 20.4283L23.5004 24.17C21.5956 26.7325 20.4551 29.9728 20.4551 33.5C20.4551 41.7916 26.743 48.5135 34.4998 48.5135C37.7993 48.5135 40.8307 47.2938 43.228 45.2582L46.7283 49L49 46.5717L46.7786 44.1971Z" fill="#1B1D22"/>
</svg>

<svg xmlns="http://www.w3.org/2000/svg" width="68" height="68" fill="none"><path fill="#9FFF45" d="M0 0h68v68H0z"/><path fill="#1B1D22" fill-rule="evenodd" d="m43.106 40.271-5.736-6.13-9.204-9.84c1.772-1.397 3.962-2.224 6.334-2.224 5.902 0 10.687 5.114 10.687 11.423 0 2.535-.774 4.876-2.081 6.771M34.5 44.923c-5.902 0-10.687-5.114-10.687-11.423 0-2.535.774-4.876 2.081-6.77l14.94 15.969c-1.772 1.397-3.962 2.224-6.334 2.224m12.279-.726-1.28-1.367c1.905-2.563 3.046-5.803 3.046-9.33 0-8.292-6.288-15.013-14.045-15.013-3.3 0-6.331 1.22-8.728 3.255L22.272 18 20 20.428l3.5 3.742c-1.904 2.563-3.045 5.803-3.045 9.33 0 8.292 6.288 15.014 14.045 15.014 3.3 0 6.33-1.22 8.728-3.256l3.5 3.742L49 46.572z" clip-rule="evenodd"/></svg>
